!!!!SEGMENT:Hananotonkiyo.krn
!!!OTL: 花のとんきよ
!!!OPR:Eiga Banso Kyokusyu,jidai-geki,kouhen
!!!YOY:1928
!!!ONB:Shizukanarukeshiki
**kern
*clefG2
*k[f#c#g#]
*A:
*M2/4
=1
4ff#
4ee
=2
4ff#
4r
=3
4ff#
4ee
=4
4cc#
8eeL
8eeJ
=5
4cc#
4ee
=6
4ff#
8ff#L
8ff#J
=7
4ff#
4gg#
=8
4ff#
4ee
=9
4cc#
4b
=10
2b
=11
4gg#
4gg#
=12
4ff#
4ff#
=13
4ee
4ee
=14
4ff#
4ee
=15
4cc#
4ee
=16
4b
4r
=17
4b
4f#
=18
4a
4b
=19
4r
4cc#
=20
4r
4ee
=21
4r
4cc#
=22
4ee
8eeL
8eeJ
=23
4ee
4gg#
=24
4ff#
4ee
=25
4cc#
4b
=26
2b
=27
2ee
=28
4.ff#
8ee
=29
4cc#
4ee
=30
4.b
8a
=31
4f#
4f#
=32
4r
4a
=33
4r
4b
=34
4r
4cc#
=35
4cc#
4a
=36
4b
4r
=37
4ff#
4ee
=38
4ff#
4r
=39
4ff#
4ee
=40
4ff#
4r
==
*-
!!!ENC: Yukiko Yoden
!!!END: 2023/06/11
